rospo-dark/16x16/actions/games-hint.svg

<svg height="16" viewBox="0 0 16 16" width="16" xmlns="http://www.w3.org/2000/svg"><path d="m8 1v .0019531c-1.9997 0-4 1.4896281-4 3.2988281 0 1.9496001 3 7.6992188 3 7.6992188h2s3-5.7515719 3-7.7011719c0-1.8092-1.9997-3.2988281-4-3.2988281zm-1 12v1a .99999.99999 0 0 0 1 1 .99999.99999 0 0 0 1-1v-1h-1z" fill="#d3dae3"/></svg>

<?xml version="1.0" encoding="UTF-8" standalone="no"?>
<svg xmlns="http://www.w3.org/2000/svg" width="22" height="22" viewBox="0 0 22 22">
 <defs>
  <style type="text/css" id="current-color-scheme">
   .ColorScheme-Text { color:#d3dae3; } .ColorScheme-Highlight { color:#5294e2; }
  </style>
 </defs>
 <path style="fill:currentColor;opacity:1" class="ColorScheme-Text" transform="translate(3 3)" d="M 8 1 L 8 1.0019531 C 6.0003 1.0019531 4 2.4915812 4 4.3007812 C 4 6.2503813 7 12 7 12 L 9 12 C 9 12 12 6.2484281 12 4.2988281 C 12 2.4896281 10.0003 1 8 1 z M 7 13 L 7 14 A 0.99999 0.99999 0 0 0 8 15 A 0.99999 0.99999 0 0 0 9 14 L 9 13 L 8 13 L 7 13 z"/>
</svg>
